X:1
T:Title
%%score 1 2
L:1/8
Q:1/4=92
M:4/4
K:F
V:1 treble nm="Grand Piano, Soprano"
V:2 bass nm="Choir Pad, He Is Coming Soon"
V:1
 [A,C]>[CA] [CA]>[DB] [CA]2 [^CG]2 | [DF]>[DG] [DF]>[B,D] [A,C]4 | [A,C]>[CF] [CF]<[CF] [FA]4 | %3
w: By~Robert~Dean~Burleson * * * * *|||
 [FA]>[EG] [DG]<[FA] [EG]4 | [A,C]>[CA] [CA]>[DB] [CA]2 [^CG]2 | [DF]>[DG] [DF]>[B,D] [A,C]4 | %6
w: |||
 [A,C]>[CF] [CF]<[CF] [FA]4 | [FA]>[EG] [FA]<[CG] [CF]4 | [Fc]3 [Fc] [FA]3 F | %9
w: |||
 [FA][FA] [FA]>[EG] F4 | [FA]3 [CF] [FA]3 [Fc] | [Ec][DG] [DG]>[FA] [EG]4 | %12
w: |||
 [Fc]3 [Fc] [CA]3 [A,F] | (3[B,G][CA][B,G] [A,F]>[B,D] [A,C]4 | [A,C]>[CF] [CF]<[CF] [FA]4 | %15
w: |||
 [FA]>[EG] [FA]<[EG] [CF]4- | [CF]4 z4 |] %17
w: ||
V:2
 F,>F, F,>F, F,2 [A,,F,]2 | [B,,B,]>[B,,B,] [B,,B,]>[B,,F,] F,4 | F,>[F,A,] [F,A,]<[F,A,] [F,C]4 | %3
 [F,C]>[G,C] [G,=B,]<[G,B,] [C,C]4 | F,>F, F,>F, F,2 [A,,F,]2 | %5
 [B,,B,]>[B,,B,] [B,,B,]>[B,,F,] F,4 | F,>[F,A,] [F,A,]<[F,A,] [F,C]4 | %7
 [C,C]>[C,C] [C,C]<[C,B,] [F,A,]4 | [F,A,]3 [F,A,] [F,C]3 [F,A,] | %9
 [F,C][F,C] [C,C]>[C,B,] [F,A,]4 | [F,C]3 [F,A,] [F,C]3 [F,A,] | G,[G,=B,] [G,B,]>[G,B,] [C,C]4 | %12
 [F,A,]3 [F,A,] F,3 F, | (3[C,E,][C,E,][C,E,] [D,F,]>[B,,F,] [F,,F,]4 | %14
 F,>[F,A,] [F,A,]<[F,A,] [F,C]4 | [C,C]>[C,C] [C,C]<[C,B,] [F,A,]4- | [F,A,]4 z4 |] %17

